PortableApps/LibreOfficePortable/App/libreoffice/help/media/icon-themes/cmd/sc_cleararrowprecedents.svg

<svg viewBox="0 0 16 16" xmlns="http://www.w3.org/2000/svg"><path d="m0 0v5h6v-.8730469l-1-1v.8730469h-4v-3h3.0878906c.0070223-.02006544.0076994-.04290859.015625-.0625.2084285-.51521667.7604192-.93737239 1.390625-.9375zm5.4941406 0c.1744213 0 .3446493.03582003.5058594.09375v-.09375zm6.5058594 5v1h3v.4824219l1 .9511719v-2.4335938zm4 5.103516-.808594.896484h.808594zm-16 .896484v5h5.4589844c-.6149017-.016065-1.1510849-.426422-1.3554688-.931641-.0086271-.021325-.0080685-.046474-.015625-.068359h-3.0878906v-3h4v.878906l1-1v-.878906zm6 4.912109c-.1435455.05158-.2945755.081973-.4492188.087891h.4492188z" fill="#808080"/><path d="m1 1v3h4v-.8730469l-.5488281-.5488281c-.4356322-.4216084-.5409304-1.0705076-.3632813-1.578125zm11 5v1.0058594c-.000706.4634785-.324981.8404953-.759766.9511718l.123047.1230469c.066819.026393.12486.0621856.183594.1015625l1.832031-1.8789062c.381866-.3915887 1.007476-.4037702 1.404297-.0273438l.216797.2070313v-.4824219zm-11 6v3h3.0878906c-.1750069-.506842-.0708268-1.152132.3632813-1.572266l.5488281-.548828v-.878906z" fill="#fff"/><path d="m5.4941406 1c-.4494023.000091-.6705869.54684-.3476562.859375l3.5 3.5-1.6464844 1.6464844h.4238281l.7695313-.7304688c.182534-.1736362.4238752-.2719906.6757812-.2753906.2702129-.0030983.5301792.1032836.7207032.2949219l.7070312.7109375h.703125v-4l-1.6464844 1.6464844-3.5-3.5c-.094207-.0973702-.2238918-.1523438-.359375-.1523438zm2.5292969 10.269531-2.8769531 2.876953c-.3229307.312535-.1017461.859284.3476562.859375.1354832 0 .265168-.054973.359375-.152343l.2636719-.263672c-.1870859-.372762-.1377288-.83333.171875-1.146485l1.9414063-1.96289z" fill="#4d82b8"/><path d="m16 14.149904-2.605902-2.651537 2.50749-2.7777731-1.807553-1.7205858-2.580554 2.6470557-2.632865-2.6470557-1.880616 1.783872 2.632863 2.7031729-2.632863 2.660005 1.880616 1.852942 2.62981-2.77941 2.635919 2.77941z" fill="#e68497"/></svg>

<svg viewBox="0 0 16 16" xmlns="http://www.w3.org/2000/svg">
  <path
     style="fill:#808080"
     d="M 0 0 L 0 5 L 6 5 L 6 4.1269531 L 5 3.1269531 L 5 4 L 1 4 L 1 1 L 4.0878906 1 C 4.0949129 0.97993456 4.09559 0.95709141 4.1035156 0.9375 C 4.3119441 0.42228333 4.8639348 0.00012761111 5.4941406 0 L 0 0 z M 5.4941406 0 C 5.6685619 0 5.8387899 0.03582003 6 0.09375 L 6 0 L 5.4941406 0 z M 12 5 L 12 6 L 15 6 L 15 6.4824219 L 16 7.4335938 L 16 5 L 12 5 z M 16 10.103516 L 15.191406 11 L 16 11 L 16 10.103516 z M 0 11 L 0 16 L 5.4589844 16 C 4.8440827 15.983935 4.3078995 15.573578 4.1035156 15.068359 C 4.0948885 15.047034 4.0954471 15.021885 4.0878906 15 L 1 15 L 1 12 L 5 12 L 5 12.878906 L 6 11.878906 L 6 11 L 0 11 z M 6 15.912109 C 5.8564545 15.963689 5.7054245 15.994082 5.5507812 16 L 6 16 L 6 15.912109 z " />
  <path
     style="fill:#ffffff"
     d="M 1 1 L 1 4 L 5 4 L 5 3.1269531 L 4.4511719 2.578125 C 4.0155397 2.1565166 3.9102415 1.5076174 4.0878906 1 L 1 1 z M 12 6 L 12 7.0058594 C 11.999294 7.4693379 11.675019 7.8463547 11.240234 7.9570312 L 11.363281 8.0800781 C 11.4301 8.1064711 11.488141 8.1422637 11.546875 8.1816406 L 13.378906 6.3027344 C 13.760772 5.9111457 14.386382 5.8989642 14.783203 6.2753906 L 15 6.4824219 L 15 6 L 12 6 z M 1 12 L 1 15 L 4.0878906 15 C 3.9128837 14.493158 4.0170638 13.847868 4.4511719 13.427734 L 5 12.878906 L 5 12 L 1 12 z " />
  <path
     style="fill:#4d82b8"
     d="M 5.4941406 1 C 5.0447383 1.000091 4.8235537 1.54684 5.1464844 1.859375 L 8.6464844 5.359375 L 7 7.0058594 L 7.4238281 7.0058594 L 8.1933594 6.2753906 C 8.3758934 6.1017544 8.6172346 6.0034 8.8691406 6 C 9.1393535 5.9969017 9.3993198 6.1032836 9.5898438 6.2949219 L 10.296875 7.0058594 L 11 7.0058594 L 11 3.0058594 L 9.3535156 4.6523438 L 5.8535156 1.1523438 C 5.7593086 1.0549736 5.6296238 1 5.4941406 1 z M 8.0234375 11.269531 L 5.1464844 14.146484 C 4.8235537 14.459019 5.0447383 15.005768 5.4941406 15.005859 C 5.6296238 15.005859 5.7593086 14.950886 5.8535156 14.853516 L 6.1171875 14.589844 C 5.9301016 14.217082 5.9794587 13.756514 6.2890625 13.443359 L 8.2304688 11.480469 L 8.0234375 11.269531 z " />
  <path
     style="fill:#e68497"
     d="M 16,14.149904 13.394098,11.498367 15.901588,8.7205939 14.094035,7.0000081 11.513481,9.6470638 8.880616,7.0000081 7,8.7838801 9.632863,11.487053 7,14.147058 8.880616,16 11.510426,13.22059 14.146345,16 Z" />
</svg>
